svg/fluentui-system-icons/ic_fluent_document_100_16_filled.svg

<svg width="16" height="16" viewBox="0 0 16 16" fill="none" xmlns="http://www.w3.org/2000/svg">
<path d="M8.00012 1V4.5C8.00012 5.32843 8.6717 6 9.50012 6H13.0001V13.5C13.0001 14.3284 12.3286 14.9999 11.5003 15C11.8141 14.5822 12.0001 14.0628 12.0001 13.5V11.5C12.0001 10.1193 10.8808 9 9.50012 9C8.68232 9 7.95624 9.39267 7.50012 9.99976C7.04401 9.39267 6.31792 9 5.50012 9C4.8026 9 4.17181 9.28566 3.71833 9.74637C3.64498 9.63919 3.5642 9.54802 3.48484 9.47372C3.32846 9.32732 3.15996 9.22561 3.00012 9.15599V2.5C3.00012 1.67157 3.6717 1 4.50012 1H8.00012ZM9.00012 1.25V4.5C9.00012 4.77614 9.22398 5 9.50012 5H12.7501L9.00012 1.25ZM5.50012 10C4.67169 10 4.00012 10.6716 4.00012 11.5V13.5C4.00012 14.3284 4.67169 15 5.50012 15C6.32855 15 7.00012 14.3284 7.00012 13.5V11.5C7.00012 10.6716 6.32855 10 5.50012 10ZM5.00012 11.5C5.00012 11.2239 5.22398 11 5.50012 11C5.77626 11 6.00012 11.2239 6.00012 11.5V13.5C6.00012 13.7761 5.77626 14 5.50012 14C5.22398 14 5.00012 13.7761 5.00012 13.5V11.5ZM8.00012 11.5C8.00012 10.6716 8.67169 10 9.50012 10C10.3285 10 11.0001 10.6716 11.0001 11.5V13.5C11.0001 14.3284 10.3285 15 9.50012 15C8.67169 15 8.00012 14.3284 8.00012 13.5V11.5ZM9.50012 11C9.22398 11 9.00012 11.2239 9.00012 11.5V13.5C9.00012 13.7761 9.22398 14 9.50012 14C9.77626 14 10.0001 13.7761 10.0001 13.5V11.5C10.0001 11.2239 9.77626 11 9.50012 11ZM3.00012 10.6543C3.00012 10.451 2.90141 10.2974 2.80139 10.2037C2.70506 10.1135 2.59319 10.0622 2.49505 10.0357C2.34312 9.99463 1.9931 9.96564 1.77004 10.2606C1.57289 10.5213 1.26022 10.8323 0.793001 11.0449C0.541665 11.1593 0.430649 11.4558 0.545039 11.7071C0.659429 11.9585 0.955908 12.0695 1.20724 11.9551C1.51917 11.8131 1.78152 11.6398 2.00012 11.4582V14.5C2.00012 14.7761 2.22398 15 2.50012 15C2.77626 15 3.00012 14.7761 3.00012 14.5V10.6543Z" fill="#212121"/>
</svg>

<svg xmlns="http://www.w3.org/2000/svg" width="16" height="16"><path d="M8 1v3.5A1.5 1.5 0 0 0 9.5 6H13v7.5a1.5 1.5 0 0 1-1.5 1.5c.314-.418.5-.937.5-1.5v-2A2.5 2.5 0 0 0 7.5 10a2.496 2.496 0 0 0-2-1c-.697 0-1.328.286-1.782.746A1.657 1.657 0 0 0 3 9.156V2.5A1.5 1.5 0 0 1 4.5 1H8Zm1 .25V4.5a.5.5 0 0 0 .5.5h3.25L9 1.25ZM5.5 10A1.5 1.5 0 0 0 4 11.5v2a1.5 1.5 0 0 0 3 0v-2A1.5 1.5 0 0 0 5.5 10ZM5 11.5a.5.5 0 0 1 1 0v2a.5.5 0 0 1-1 0v-2Zm3 0a1.5 1.5 0 0 1 3 0v2a1.5 1.5 0 0 1-3 0v-2Zm1.5-.5a.5.5 0 0 0-.5.5v2a.5.5 0 0 0 1 0v-2a.5.5 0 0 0-.5-.5ZM3 10.654a.616.616 0 0 0-.199-.45.725.725 0 0 0-.306-.168c-.152-.041-.502-.07-.725.225-.197.26-.51.571-.977.784a.5.5 0 0 0 .414.91A3.52 3.52 0 0 0 2 11.458V14.5a.5.5 0 0 0 1 0v-3.846Z"/></svg>
